X:1
T:Title
%%score { ( 1 3 ) | 2 }
L:1/8
M:4/4
K:Bb
V:1 treble nm="Grand Piano"
V:3 treble 
V:2 bass 
V:1
 z4 z2[Q:1/4=100] [DF]2 | [EG]3 [DF] [B,D]2 [DF]2 | [FB]3 c d2 [FB]2 | c3 c B2 A2 |[M:3/4] [DB]6 | %5
[M:1/4] [DF]2 |[M:4/4] [EG]3 [DF] [B,D]2 [DF]2 | [FB]3 c d2 [FB]2 | c3 G A2 c2 |[M:3/4] [DB]6 | %10
[M:1/4] [DB]2 |[M:4/4] c3 A F2 e2 | d3 c B2 [FB]2 | [GB]3 [EG] [GB]2 [Gc]2 |[M:3/4] [^Fd]6 | %15
[M:1/4] [^Fd]2 |[M:4/4] [Fe]3 [Fe] [Fd]2 c2 | z4 c2 z2 | c3 G A2 c2 |[M:3/4] [DB]6 |] %20
V:2
 z4 z2 [B,,B,]2 | [B,,B,]3 [B,,B,] [B,,F,]2 [B,,B,]2 | %2
 [D,B,]3[K:treble] [F,A,F] [B,F]2[K:bass] [D,B,]2 | [E,G,E]3 [E,G,E] [F,D]2 [F,E]2 | %4
[M:3/4] [B,,F,]6 |[M:1/4] [B,,B,]2 |[M:4/4] [B,,B,]3 [B,,B,] [B,,F,]2 [B,,B,]2 | %7
 [D,B,]3[K:treble] [F,A,F] [B,F]2[K:bass] [D,B,]2 | [E,G,E]3 [E,B,E] [F,E]2 [F,E]2 | %9
[M:3/4] [B,,F,]6 |[M:1/4] [B,,F,]2 |[M:4/4] [F,A,E]3 [F,CE] [F,CE]2[K:treble] [F,A,G]2 | %12
 [B,F]3[K:bass] [F,A,E] [G,B,D]2 [D,B,]2 | [E,E]3 [E,B,] [E,E]2 [E,G,]2 |[M:3/4] [D,A,]6 | %15
[M:1/4] [D,A,]2 |[M:4/4] [C,A,]3 [C,A,] [B,,B,]2[K:treble] [F,A,F]2 | %17
 [B,F]3 [B,F][K:bass] .[F,A,F]2 [D,B,]2 | [E,G,E]3 [E,B,E] [F,E]2 [F,E]2 |[M:3/4] [B,,F,]6 |] %20
V:3
 x8 | x8 | x8 | x8 |[M:3/4] x6 |[M:1/4] x2 |[M:4/4] x8 | x8 | x8 |[M:3/4] x6 |[M:1/4] x2 | %11
[M:4/4] x8 | x8 | x8 |[M:3/4] x6 |[M:1/4] x2 |[M:4/4] x8 | d3 d z E, [FB]2 | x8 |[M:3/4] x6 |] %20

